!!!!SEGMENT: pl-wn--mus-5022_zelenski-wladyslaw--z-lak-i-pol.krn
!!!cenid: 18xx:3661
!!!COM: Żeleński, Władysław
!!!COM-rismID: pe41024455
!!!CDT: 1837/07/06-1921/01/23
!!!CNT: Polish
!!!OTL: Z łąk i pól
!!!PDT:
!!!AGN:
!!!SMS-siglum: PL-Wn
!!!SMS-shelfmark: Mus.5022
!!!SMS-shelfwork: W
!!!SMS-variant:
!!!SMS-altvar:
!!!NIFC-rismSourceID:
!!!NIFC-rismChildID:
!!!NIFC-islandoraID: none
!!!URL-pdf-islandora:
!!!URL-scan: https://polona2.pl/item/z-lak-i-pol,NjYzODU0OTE/0 @EN{Scan on Polona} @PL{Skany w portalu Polona}
!!!IIIF: https://polona2.pl/iiif/item/NjYzODU0OTE/manifest.json
!!!ONB-nifc:
!!!AIN: 1 piano 1 vox
!!!key: f
**kern	**kern	**dynam	**kern	**text	**dynam
*part2	*part2	*part2	*part1	*part1	*part1
*staff3	*staff2	*	*staff1	*staff1	*
*Ipiano	*Iempty	*	*Ivox	*	*
*I"Piano	*	*	*I"Canto	*	*
*I'P-no	*	*	*I'C.	*	*
*ICklav	*	*	*ICvox	*	*
*clefF4	*clefG2	*	*clefG2	*	*
*k[b-e-a-d-]	*k[b-e-a-d-]	*	*k[b-e-a-d-]	*	*
*f:	*f:	*	*f:	*	*
*M2/4	*M2/4	*	*M2/4	*	*
*	*	*below	*	*	*
*^	*	*	*	*	*
*xywh-1:258,1322,5903,1383	*xywh-1:258,1322,5903,1383	*xywh-1:258,1322,5903,1383	*	*xywh-1:219,137,6003,1284	*	*
!	!	!	!	!LO:TX:a:rj:t=Allegretto non troppo	!	!
8C/	8r	8ryy	p	8r	.	.
=1	=1	=1	=1	=1	=1	=1
*	*	*^	*	*	*	*
!LO:N:vis=2	!	!	!	!	!	!	!
8FFF/	2FFF\	(16c/LL 16A-/LL	4r	.	2r	.	.
.	.	16B-/ 16G/	.	.	.	.	.
4FF/	.	16A-/ 16F/	.	.	.	.	.
.	.	16B-/JJ 16G/JJ	.	.	.	.	.
.	.	8.c/L	[4A-\	.	.	.	.
8FF/	.	.	.	.	.	.	.
.	.	16Bn/Jk	.	.	.	.	.
=2	=2	=2	=2	=2	=2	=2	=2
!LO:N:vis=2	!	!	!	!	!	!	!
8FFF/	2FFF\	4c/)	4A-\]	.	2r	.	.
4FF/	.	.	.	.	.	.	.
.	.	(8qe-/	.	.	.	.	.
.	.	4d-/ 4A-/	4ryy	.	.	.	.
8FF/	.	.	.	.	.	.	.
=3	=3	=3	=3	=3	=3	=3	=3
!LO:N:vis=2	!	!	!	!	!	!	!
8FFF/	2FFF\	16c/LL 16A-/LL	4ryy	.	2r	.	.
.	.	16d-/ 16B-/	.	.	.	.	.
4FF/	.	16e-/ 16c/	.	.	.	.	.
.	.	16d-/JJ 16B-/JJ	.	.	.	.	.
!	!	!	!LO:TX:a:t=P:problem=mixed beam	!	!	!	!
.	.	[4c/)	8.A-\L	.	.	.	.
8FF/	.	.	.	.	.	.	.
.	.	.	16C</Jk	.	.	.	.
*	*	*v	*v	*	*	*	*
!!LO:LB:g=original
=4	=4	=4	=4	=4	=4	=4
*	*^	*	*	*	*	*
*xywh-1:258,3104,5834,1254	*xywh-1:258,3104,5834,1254	*xywh-1:258,3104,5834,1254	*xywh-1:258,3104,5834,1254	*	*xywh-1:268,2467,5555,806	*	*
!LO:N:vis=2	!	!	!	!	!	!	!
8FFF/	2FFF\	(4F/ 4Dn/	2c^/_>	.	4r	.	.
4FF/	.	.	.	.	.	.	.
.	.	4G/ 4En/)	.	.	8r	.	.
!	!	!	!	!	!	!	!LO:DY:rj
8FF/	.	.	.	.	8c/	Za-	p
*	*v	*v	*	*	*	*	*
=5	=5	=5	=5	=5	=5	=5
!LO:N:vis=2	!	!	!	!	!	!
8FFF/	2FFF\	(16c/]LL 16A-/	pp	(8c/	-szu-	.
.	.	16B-/ 16G/	.	.	.	.
4FF/	.	16A-/ 16F/	.	4f/)	.	.
.	.	16B-/JJ 16G/	.	.	.	.
.	.	8.c/L 8.A-/	.	.	.	.
8FF/	.	.	.	8en/	-miał	.
.	.	16Bn/Jk	.	.	.	.
=6	=6	=6	=6	=6	=6	=6
!LO:N:vis=2	!	!	!	!	!	!
8FFF/	2FFF\	4c/ 4A-/)	.	4.f/	las,	.
4FF/	.	.	.	.	.	.
.	.	8qe-/	.	.	.	.
.	.	(4d-/ [4A-/	.	.	.	.
8FF/	.	.	.	8g/	za-	.
=7	=7	=7	=7	=7	=7	=7
!LO:N:vis=2	!	!	!	!	!	!
8FFF/	2FFF\	16c/LL 16A-/]	.	(8a-/	-szu-	.
.	.	16d-/ 16B-/	.	.	.	.
4FF/	.	16e-/ 16c/	.	4g/)	.	.
.	.	16d-/JJ 16B-/)	.	.	.	.
.	.	[4c/ [4A-/	.	.	.	.
8FF/	.	.	.	8f/	-miał	.
!!LO:LB:g=original
=8	=8	=8	=8	=8	=8	=8
*xywh-1:298,4806,5853,1304	*xywh-1:298,4806,5853,1304	*xywh-1:298,4806,5853,1304	*	*xywh-1:298,4159,5804,856	*	*
*	*	*	*	*2\right	*	*
!LO:N:vis=2	!	!	!	!	!	!
8FFF/	2FFF\	(16c/]LL 16A-/]	.	[2cc\	las	.
.	.	16B-/ 16G/	.	.	.	.
4FF/	.	16A-/ 16F/	.	.	.	.
.	.	16B-/JJ 16G/	.	.	.	.
.	.	16c/LL 16A-/	.	.	.	.
.	.	16d-/ 16B-/	.	.	.	.
8FF/	.	16e-/ 16c/	.	.	.	.
.	.	16d-/JJ 16B-/)	.	.	.	.
=9	=9	=9	=9	=9	=9	=9
!LO:N:vis=2	!	!	!	!	!	!
8FFF/	2FFF\	(>4c/ 4A-/	.	4cc\]	.	.
4FF/	.	.	.	.	.	.
.	.	8C</L)	.	8r	.	.
8FF/	.	(8c/J 8A-/	.	8f/	Od	.
*v	*v	*	*	*	*	*
=10	=10	=10	=10	=10	=10
*	*^	*	*	*	*
8BBB-/L	(4.e-/)	[2F\	.	4cc\	pła-	.
8FF/	.	.	.	.	.	.
8BBB-/	.	.	.	8f/L	-czu	.
8FF/J	16d-/LL	.	.	8f/J	od	.
.	16c/JJ	.	.	.	.	.
=11	=11	=11	=11	=11	=11	=11
8BBB-/L	4.f/)	8F\L]	.	4.dd-\	pła-	.
8FF/	.	8F\	.	.	.	.
8BBB-/	.	8G\	.	.	.	.
8FF/J	8e-/	8An\J	.	8cc\	-czu	.
!!LO:LB:g=original
=12	=12	=12	=12	=12	=12	=12
*xywh-1:278,6449,5873,1612	*xywh-1:278,6449,5873,1612	*xywh-1:278,6449,5873,1612	*	*xywh-1:268,5881,5893,766	*	*
8BBB-/L	(8d-/L	4B-\	<	(8b-\	mo-	.
8FF/	8f/	.	.	4f/)	.	.
8BBB-/	8b-/ 8d-/	4ryy	.	.	.	.
8FF/J	8a-/J 8c/	.	.	8a-\	-ich	.
=13	=13	=13	=13	=13	=13	=13
8CC/L	16a-/LL	8c\L	[	4a-/	pie-	.
.	16g/	.	.	.	.	.
8C/	16f/	8Bn\J	.	.	.	.
.	16a-/JJ	.	.	.	.	.
8CC/	8.g/L 8.B-X/)	4ryy	.	8g/	-śni	.
8C/J	.	.	.	8r	.	.
.	([16B-/Jk (16G/	.	.	.	.	.
*	*v	*v	*	*	*	*
=14	=14	=14	=14	=14	=14
8CC\L	4d-/ 4B-/] 4F/	.	2r	.	.
8C\	.	.	.	.	.
8CC\	4c/ 4G/ 4En/))	.	.	.	.
8C\J	.	.	.	.	.
=15	=15	=15	=15	=15	=15
8AA-\L 8EE-X\ 8AAA-\	8e-X/L 8A-/ 8E-X</	sf	8r	.	.
!	!	!	!	!	!LO:DY:a
!	!	!	!LO:TX:a:t=poco animato	!	!LO:DY:a
8AA-\ 8EE-\ 8AAA-\	8e-/ 8A-/ 8E-</	p	8e-/	Po	mf
8AA-\ 8EE-\ 8AAA-\	8e-/ 8A-/ 8E-</	.	8a-\	szczy-	.
8AA-\J 8EE-\ 8AAA-\	8e-/J 8A-/ 8E-</	.	8g/	-tach	.
!!LO:PB:g=original
=16	=16	=16	=16	=16	=16
*xywh-2:215,1359,6015,1368	*xywh-2:215,1359,6015,1368	*	*xywh-2:65,223,6090,1341	*	*
8AA-\L 8EE-\ 8AAA-\	8e-/L 8A-/ 8E-</	.	4.cc\	drzew	.
8AA-\ 8EE-\ 8AAA-\	8e-/ 8A-/ 8E-</	.	.	.	.
8AA-\ 8EE-\ 8AAA-\	8e-/ 8A-/ 8E-</	.	.	.	.
8AA-\J 8EE-\ 8AAA-\	8e-/J 8A-/ 8E-</	.	[8b-\	ru-	.
=17	=17	=17	=17	=17	=17
8AA-\L 8EE-\ 8AAA-\	8e-/L 8A-/ 8E-</	.	8b-\]	.	.
8AA-\ 8EE-\ 8AAA-\	8e-/ 8A-/ 8E-</	.	4a-/	-szył	.
8AA-\ 8EE-\ 8AAA-\	8e-/ 8A-/ 8E-</	.	.	.	.
8AA-\J 8EE-\ 8AAA-\	8e-/J 8A-/ 8E-</	.	(16g/LL	się	.
.	.	.	16f/JJ)	.	.
=18	=18	=18	=18	=18	=18
*	*^	*	*	*	*
8AA-\L 8EE-\ 8AAA-\	[>2e-/ [>2E-</	[4B-\	.	[2b-\	śpiew	.
8AA-\ 8EE-\ 8AAA-\	.	.	.	.	.	.
8AA-\ 8EE-\ 8AAA-\	.	16B-\LL]	.	.	.	.
.	.	16c\	.	.	.	.
8AA-\J 8EE-\ 8AAA-\	.	16d-\	.	.	.	.
.	.	16c\JJ	.	.	.	.
=19	=19	=19	=19	=19	=19	=19
8AA-\L 8EE-\ 8AAA-\	4e-/_> 4E-</_>	16B-\LL	.	4b-\]	.	.
.	.	16c\	.	.	.	.
8AA-\ 8EE-\ 8AAA-\	.	16d-\	.	.	.	.
.	.	16c\JJ	.	.	.	.
8AA-\ 8EE-\ 8AAA-\	8e-/] 8B-/ 8E-</]	4ryy	.	8r	.	.
8AA-\J 8EE-\ 8AAA-\	8re	.	.	16b-/	Ptasz-	.
.	.	.	.	16g/	.	.
!!LO:LB:g=original
=20	=20	=20	=20	=20	=20	=20
*xywh-2:187,3101,5941,1266	*xywh-2:187,3101,5941,1266	*xywh-2:187,3101,5941,1266	*	*xywh-2:168,2440,5904,791	*	*
8GG-X\L 8GGG-X\	4.e-/	8A-\L 8E-<\	.	4.ee-\	-ko-	.
8GG-\ 8GGG-\	.	8A-\ 8E-<\	.	.	.	.
8FF\ 8FFF\	.	8A-\ 8F<\	.	.	.	.
8FF\J 8FFF\	8d-/	8A-\J 8F<\	.	8dd-\	-wie	.
=21	=21	=21	=21	=21	=21	=21
8GGGn\L	[2c>/	16E-<\LL	.	4cc\	łka-	.
.	.	16F<\	.	.	.	.
8GGn\	.	16G<\	.	.	.	.
.	.	16F<\JJ	.	.	.	.
8GGG\	.	[4E-<\	.	8g/	-ją	.
8GG\J	.	.	.	8r	.	.
=22	=22	=22	=22	=22	=22	=22
8GGG\L	2c/_	16E-<\LL]	.	8r	.	.
.	.	16F\	.	.	.	.
!	!	!	!	!	!	!LO:DY:rj
8GG\	.	16G\	.	(8g\L	łka-	p
.	.	16F\JJ	.	.	.	.
8GGG\	.	16E-\LL	.	8b-\J)	.	.
.	.	16F\	.	.	.	.
8GG\J	.	16G\	.	8a-/	-ją	.
.	.	16F\JJ	.	.	.	.
=23	=23	=23	=23	=23	=23	=23
8GGG\L	(4c/]	16E-\LL	.	[>2g/	le-	.
.	.	16F\	.	.	.	.
8GG\	.	16G\	.	.	.	.
.	.	16F\JJ	.	.	.	.
8GGG\	8Bn/L 8G/)	4ryy	.	.	.	.
8GG\J	8dn/J 8B/ 8F</	.	.	.	.	.
!!LO:LB:g=original
=24	=24	=24	=24	=24	=24	=24
*xywh-2:289,4749,5606,1359	*xywh-2:289,4749,5606,1359	*xywh-2:289,4749,5606,1359	*	*xywh-2:177,4125,5932,772	*	*
!	!	!	!LO:DY:rj	!	!	!
8CC\L	[4c/ 4G<\	4ryy	f	(16g/LL]	.	.
.	.	.	.	16e-/JJ)	.	.
8GG\	.	.	.	8c/	-śni	.
8CC\	16c/LL]	(4A-\	.	4r	.	.
.	16dn/	.	.	.	.	.
8FF#X\J	16e-/	.	.	.	.	.
.	16d/JJ	.	.	.	.	.
=25	=25	=25	=25	=25	=25	=25
8CC\L	[4c/	(4G\)	.	2r	.	.
8GG\	.	.	.	.	.	.
8CC\	8c/L]	4F#X\	.	.	.	.
8AA-\J	16B-/L	.	.	.	.	.
.	16A-/JJ	.	.	.	.	.
=26	=26	=26	=26	=26	=26	=26
8CC\L	[4c/	4G\)	.	2r	.	.
8GG\	.	.	.	.	.	.
8CC\	16c/LL]	(4A-\	pp	.	.	.
.	16dn/	.	.	.	.	.
8FF#X\J	16e-/	.	.	.	.	.
.	16d/JJ	.	.	.	.	.
=27	=27	=27	=27	=27	=27	=27
8CC\L	[4c/	4G\	.	2r	.	.
8GG\	.	.	.	.	.	.
8CC\	8c/L]	4ryy	.	.	.	.
8AA-\J	16B-/L	.	.	.	.	.
.	16A-/JJ	.	.	.	.	.
!!LO:LB:g=original
=28	=28	=28	=28	=28	=28	=28
*xywh-2:224,6426,5922,1387	*xywh-2:224,6426,5922,1387	*xywh-2:224,6426,5922,1387	*	*xywh-2:261,5830,5755,810	*	*
8CC\L	[2c/	[4G\)	.	2r	.	.
8GG\	.	.	.	.	.	.
8CC\	.	16G\LL]	.	.	.	.
.	.	16A-\	.	.	.	.
8C\J	.	16B-\	.	.	.	.
.	.	16A-\JJ	.	.	.	.
=29	=29	=29	=29	=29	=29	=29
8CC\L	2c/_	16G\LL	.	4r	.	.
.	.	16A-\JJ	.	.	.	.
8C\	.	4B-\	.	.	.	.
8CC\	.	.	.	8r	.	.
!	!	!	!	!	!	!LO:DY:rj
8C\J	.	16A-\LL	.	8c/	Za-	p
.	.	16G\JJ	.	.	.	.
=30	=30	=30	=30	=30	=30	=30
*^	*	*	*	*	*	*
!LO:N:vis=2	!	!	!	!	!	!	!
8FFF/	2FFF\	16c/LL] 16A-/LL	4ryy	pp	(8c/	-ki-	.
.	.	16B-/ 16G/	.	.	.	.	.
4FF/	.	16A-/ 16F/	.	.	4f/)	.	.
.	.	16B-/JJ 16G/JJ	.	.	.	.	.
.	.	8.c/L	[4A-\	.	.	.	.
8FF/	.	.	.	.	8en/	-piał	.
.	.	16Bn/Jk	.	.	.	.	.
*	*	*v	*v	*	*	*	*
=31	=31	=31	=31	=31	=31	=31
!LO:N:vis=2	!	!	!	!	!	!
8FFF/	2FFF\	4c/ 4A-\]	.	4.f/	zdrój	.
4FF/	.	.	.	.	.	.
.	.	(8qe-/	.	.	.	.
.	.	4d-/ [4A-\	.	.	.	.
8FF/	.	.	.	8g/	za-	.
!!LO:PB:g=original
=32	=32	=32	=32	=32	=32	=32
*xywh-3:376,1305,5726,1343	*xywh-3:376,1305,5726,1343	*xywh-3:376,1305,5726,1343	*	*xywh-3:358,223,5940,1277	*	*
!LO:N:vis=2	!	!	!	!	!	!
8FFF/	2FFF\	16c/LL 16A-/]	.	(8a-/	-ki-	.
.	.	16d-/ 16B-/	.	.	.	.
4FF/	.	16e-/ 16c/	.	4g/)	.	.
.	.	16d-/JJ 16B-/	.	.	.	.
.	.	[4c/ [4A-/)	.	.	.	.
8FF/	.	.	.	8f/	-piał	.
=33	=33	=33	=33	=33	=33	=33
!LO:N:vis=2	!	!	!	!	!	!
8FFF/	2FFF\	(16c/]LL 16A-/]	.	[2cc\	zdrój	.
.	.	16B-/ 16G/	.	.	.	.
4FF/	.	16A-/ 16F/	.	.	.	.
.	.	16B-/JJ 16G/	.	.	.	.
.	.	16c/LL 16A-/	.	.	.	.
.	.	16d-/ 16B-/	.	.	.	.
8FF/	.	16e-/ 16c/)	.	.	.	.
.	.	16d-/JJ 16B-/	.	.	.	.
=34	=34	=34	=34	=34	=34	=34
!LO:N:vis=2	!	!	!	!	!	!
8FFF/	2FFF\	(>4c/ 4A-/	.	4cc\]	.	.
4FF/	.	.	.	.	.	.
.	.	8C</L)	.	8r	.	.
8FF/	.	(>8c/J 8A-/	.	8f/	Od	.
*v	*v	*	*	*	*	*
=35	=35	=35	=35	=35	=35
*	*^	*	*	*	*
8BBB-/L	4.e-/)	[2F\	.	4cc\	tę-	.
8FF/	.	.	.	.	.	.
8BBB-/	.	.	.	8f/	-sknot	.
8FF/J	(16d-/LL	.	.	8f/	od	.
.	16c/JJ	.	.	.	.	.
=36	=36	=36	=36	=36	=36	=36
8BBB-/L	4.f/)	8F\L]	.	4.dd-\	tę-	.
8FF/	.	8F\	.	.	.	.
8BBB-/	.	8G\	.	.	.	.
8FF/J	8e-/	8An\J	.	8cc\	-sknot	.
!!LO:LB:g=original
=37	=37	=37	=37	=37	=37	=37
*xywh-3:302,3031,5866,1333	*xywh-3:302,3031,5866,1333	*xywh-3:302,3031,5866,1333	*	*xywh-3:293,2396,5894,848	*	*
8BBB-/L	(8d-/L	4B-\	.	(<8b-\	mo-	.
8FF/	8f/	.	.	4f/)	.	.
8BBB-/	8b-/ 8d-/	4ryy	.	.	.	.
8FF/J	8a-/J 8c/)	.	.	8a-\	-ich	.
=38	=38	=38	=38	=38	=38	=38
8EE-/L	16a-/LL	8c\L	.	4a-/	ża-	.
.	16g/	.	.	.	.	.
8E-/	16f/	8dn\J	.	.	.	.
.	16a-/JJ	.	.	.	.	.
8EE-/	8.g/L 8.e-/ 8.B-/	4ryy	.	8g/	-ru	.
8E-/J	.	.	.	8r	.	.
.	(>[<16d-X/Jk 16B-/	.	.	.	.	.
*	*v	*v	*	*	*	*
=39	=39	=39	=39	=39	=39
8EE-/L	4f/ 4d-/] 4A-/	.	2r	.	.
8E-/	.	.	.	.	.
8EE-/	4e-/ 4d-/ 4G/)	.	.	.	.
8E-/J	.	.	.	.	.
=40	=40	=40	=40	=40	=40
*	*^	*	*	*	*
8AA-\L 8AAA-\	2e-^/	8A-\L 8E-<\	sf	8r	.	.
!	!	!	!	!	!	!LO:DY:a
8AA-\ 8AAA-\	.	8A-\ 8E-<\	p	8e-/	I	mf
8AA-\ 8AAA-\	.	8A-\ 8E-<\	.	8a-/	si-	.
8AA-\J 8AAA-\	.	8A-\J 8E-<\	.	8g/	-ne	.
=41	=41	=41	=41	=41	=41	=41
8AA-\L 8AAA-\	2e-^/	8A-\L 8F\	fz	4.cc\	mgły	.
8AA-\ 8AAA-\	.	8A-\ 8F\	p	.	.	.
8AA-\ 8AAA-\	.	8A-\ 8F\	.	.	.	.
8AA-\J 8AAA-\	.	8A-\J 8F\	.	8b-\	i	.
!!LO:LB:g=original
=42	=42	=42	=42	=42	=42	=42
*xywh-3:339,4728,5884,1324	*xywh-3:339,4728,5884,1324	*xywh-3:339,4728,5884,1324	*	*xywh-3:321,4075,5884,848	*	*
8AA-/L 8AAA-/	2dn^/	8A-\L 8Fn\	fz	4.a-/	sre-	.
8AA-/ 8AAA-/	.	8A-\ 8F\	p	.	.	.
8AA-/ 8AAA-/	.	8A-\ 8F\	.	.	.	.
8AA-/J 8AAA-/	.	8A-\J 8F\	.	(16g/LL	-brne	.
.	.	.	.	16f/JJ)	.	.
=43	=43	=43	=43	=43	=43	=43
8AA-/L 8EE-/ 8AAA-/	[2e-/ [<2G/	[<4B-\	.	[2b-\	łzy	.
8AA-/ 8EE-/ 8AAA-/	.	.	.	.	.	.
8AA-/ 8EE-/ 8AAA-/	.	16B-\LL]	.	.	.	.
.	.	16c\	.	.	.	.
8AA-/J 8EE-/ 8AAA-/	.	16d-\	.	.	.	.
.	.	16c\JJ	.	.	.	.
=44	=44	=44	=44	=44	=44	=44
8AA-/L 8EE-/ 8AAA-/	4e-/_ 4G/_<	16B-\LL	.	4.b-\]	.	.
.	.	16c\	.	.	.	.
8AA-/ 8EE-/ 8AAA-/	.	16d-\	.	.	.	.
.	.	16c\JJ	.	.	.	.
8AA-/ 8EE-/ 8AAA-/	8e-/] 8B-/ 8G/]	4ryy	.	.	.	.
8AA-/J 8EE-/ 8AAA-/	8re	.	.	8r	.	.
=45	=45	=45	=45	=45	=45	=45
*^	*	*	*	*	*	*
(<2AA-/	4AAA-\	2e-/ 2A-/	(4E-</	p	8r	.	.
!	!	!	!	!	!	!	!LO:DY:rj
.	.	.	.	.	8e-/	Roz-	p
.	4CC\	.	4G-X</)	.	8f/	-bryz-	.
.	.	.	.	.	8g-X/	-nął	.
*	*	*v	*v	*	*	*	*
=46	=46	=46	=46	=46	=46	=46
*	*2\right	*	*	*	*	*
4.AA-/)	2DD-\	2d-/ 2A-/ 2F</	.	8f/	wcie-	.
.	.	.	.	8a-\	-niach	.
.	.	.	.	[4dd-\	ja-	.
8AAn/	.	.	.	.	.	.
*v	*v	*	*	*	*	*
!!LO:LB:g=original
=47	=47	=47	=47	=47	=47
*	*^	*	*	*	*
*	*	*^	*	*	*	*
*xywh-3:190,6397,6099,1324	*xywh-3:190,6397,6099,1324	*xywh-3:190,6397,6099,1324	*xywh-3:190,6397,6099,1324	*	*xywh-3:367,5847,5717,792	*	*
2BB-/ 2BBB-/	2d-/	2A-\	4F</	.	8dd-\]	.	.
.	.	.	.	.	8cc\	-ru	.
.	.	.	4F-X</	.	8b-\	wcie-	.
.	.	.	.	.	8a-\	-niach	.
*	*	*v	*v	*	*	*	*
*	*v	*v	*	*	*	*
=48	=48	=48	=48	=48	=48
2EE-/	(>4c/ 4A-/ 4E-</	.	(8cc\	ja-	.
.	.	.	4f/	.	.
.	4G/ 4D-</)	.	.	.	.
.	.	.	8g/)	.	.
=49	=49	=49	=49	=49	=49
*	*^	*	*	*	*
8AAA-\L	(>[4A-/ 4C</	4ryy	f	[>2a-/	-ru	.
8EE-\	.	.	.	.	.	.
8AAA-\	16A-/LL]	4F-X\	.	.	.	.
.	16B-/	.	.	.	.	.
8DDn\J	16c/	.	.	.	.	.
.	16B-/JJ	.	.	.	.	.
=50	=50	=50	=50	=50	=50	=50
8AAA-\L	[4A-/ 4E-</	4ryy	.	8a-/]	.	.
8EE-\	.	.	.	8r	.	.
8AAA-\	8A-/L]	4Dn</	.	4r	.	.
8FF-X\J	16G-X/L	.	.	.	.	.
.	16F-X/JJ)	.	.	.	.	.
*	*v	*v	*	*	*	*
=51	=51	=51	=51	=51	=51
8AAA-\L	(>[4A-/ 4E-</	pp	2r	.	.
8EE-\	.	.	.	.	.
8AAA-\	16A-/LL]	.	.	.	.
.	16B-/	.	.	.	.
8DDn\J	16c-X/	.	.	.	.
.	16B-/JJ	.	.	.	.
!!LO:PB:g=original
=52	=52	=52	=52	=52	=52
*	*^	*	*	*	*
*xywh-4:288,1276,5922,1312	*xywh-4:288,1276,5922,1312	*xywh-4:288,1276,5922,1312	*	*xywh-4:139,168,5996,1229	*	*
8AAA-\L	[4A-/	4E-</	.	2r	.	.
8FF\	.	.	.	.	.	.
8AAA-\	8A-/L]	4Dn</	.	.	.	.
8FF-X\J	16G-X/L	.	.	.	.	.
.	16F-X/JJ)	.	.	.	.	.
=53	=53	=53	=53	=53	=53	=53
!	!LO:TX:b:t=poco ritard	!	!	!	!	!
8AAA-\L	16A-/LL	2E-</	.	2r	.	.
.	16c-X/J	.	.	.	.	.
8EE-\	[8e-/J	.	.	.	.	.
8AAA-\	16e-/LL]	.	.	.	.	.
.	16d-/	.	.	.	.	.
8EE-\J	16c-/	.	.	.	.	.
.	16B-/JJ	.	.	.	.	.
*	*v	*v	*	*	*	*
=54	=54	=54	=54	=54	=54
8AAA-\L	2c-X/ 2E-</	.	2r	.	.
8AA-\	.	.	.	.	.
8AAA-\	.	.	.	.	.
8AA-\J	.	.	.	.	.
=55	=55	=55	=55	=55	=55
*^	*	*	*	*	*
16E-/LL 16GG-X/	[2CC-X\	[>2c-X/	p	8r	.	.
16F-X/ 16AA-/	.	.	.	.	.	.
16G-X/ 16BB--/	.	.	.	4cc-X\	Zer-	.
16F-/JJ 16AA-/	.	.	.	.	.	.
16E-/LL 16GG-/	.	.	.	.	.	.
16F-/ 16AA-/	.	.	.	.	.	.
16G-/ 16BB--/	.	.	.	16g-X/	-wał	.
16F-/JJ 16AA-/	.	.	.	16f-X/	się	.
!!LO:LB:g=original
=56	=56	=56	=56	=56	=56	=56
*xywh-4:288,3008,5810,1238	*xywh-4:288,3008,5810,1238	*xywh-4:288,3008,5810,1238	*	*xywh-4:279,2347,5959,819	*	*
16E-/LL 16GG-X/	4.CC-\]	4.c-/]	.	4.e-/	wiatr	.
16F-X/ 16AA-/	.	.	.	.	.	.
16G-X/ 16BB--/	.	.	.	.	.	.
16F-/JJ 16AA-/	.	.	.	.	.	.
16E-/LL 16GG-/	.	.	.	.	.	.
16F-/ 16AA-/	.	.	.	.	.	.
16G-/ 16BB--/	8r	8r	.	8r	.	.
16F-/JJ 16AA-/	.	.	.	.	.	.
=57	=57	=57	=57	=57	=57	=57
16E-/LL 16GG-X/	[2CC-X\	[>2B--/	.	4.dd-\	ze-	.
16F-X/ 16AA-/	.	.	.	.	.	.
16G-X/ 16BB--/	.	.	.	.	.	.
16F-/JJ 16AA-/	.	.	.	.	.	.
16E-/LL 16GG-/	.	.	.	.	.	.
16F-/ 16AA-/	.	.	.	.	.	.
16G-/ 16BB--/	.	.	.	16b--\	-wał	.
16F-/JJ 16AA-/	.	.	.	16a-\	się	.
=58	=58	=58	=58	=58	=58	=58
16E-/LL 16GG-X/	4.CC-\]	4.B--/]	.	4.g-X/	wiatr	.
16F-X/ 16AA-/	.	.	.	.	.	.
16G-X/ 16BB--/	.	.	.	.	.	.
16F-/JJ 16AA-/	.	.	.	.	.	.
16E-/LL 16GG-/	.	.	.	.	.	.
16F-/ 16AA-/	.	.	.	.	.	.
16G-/ 16BB--/	8r	8r	.	8r	.	.
16F-/JJ 16AA-/	.	.	.	.	.	.
=59	=59	=59	=59	=59	=59	=59
16Fn/LL 16AA-/	[2CC-X\	[>2e--/	.	8r	.	.
16G-X/ 16BB--/	.	.	.	.	.	.
16A-/ 16C-X/	.	.	.	4a-/	E-	.
16G-/JJ 16BB--/	.	.	.	.	.	.
16F/LL 16AA-/	.	.	.	.	.	.
16G-/ 16BB--/	.	.	.	.	.	.
16A-/ 16C-/	.	.	.	[>8e--/	-chem	.
16G-/JJ 16BB--/	.	.	.	.	.	.
!!LO:LB:g=original
=60	=60	=60	=60	=60	=60	=60
*xywh-4:251,4712,5773,1275	*xywh-4:251,4712,5773,1275	*xywh-4:251,4712,5773,1275	*	*xywh-4:223,4079,5912,791	*	*
16F/LL 16AA-/	2CC-\_	2e--/_>	.	8e--/]	.	.
16G-X/ 16BB--/	.	.	.	.	.	.
16A-/ 16C-X/	.	.	.	8e--/	mych	.
16G-/JJ 16BB--/	.	.	.	.	.	.
16F/LL 16AA-/	.	.	.	8e--/	skarg	.
16G-/ 16BB--/	.	.	.	.	.	.
16A-/ 16C-/	.	.	.	8e--/	zbu-	.
16G-/JJ 16BB--/	.	.	.	.	.	.
=61	=61	=61	=61	=61	=61	=61
16F/LL 16AA-/	4CC-\]	4e--/]	.	4cc-X\	-dzo-	.
16G-X/ 16BB--/	.	.	.	.	.	.
16A-/ 16C-X/	.	.	.	.	.	.
16F/JJ 16BB--/	.	.	.	.	.	.
16F/LL 16AA-/	[4DD-\	[>4d-/	.	8a-/	-ny	.
16G-/ 16BB--/	.	.	.	.	.	.
16A-/ 16C-/	.	.	.	8r	.	.
16G-/JJ 16BB--/	.	.	.	.	.	.
=62	=62	=62	=62	=62	=62	=62
16F/LL 16AA-/	4DD-\]	4d-/]	.	4r	.	.
16Gn/ 16BB--/	.	.	.	.	.	.
16A-/ 16C-X/	.	.	.	.	.	.
16G/JJ 16BB--/	.	.	.	.	.	.
16F/LL 16AA-/	4DDn\	(>4c-X/	.	8r	.	.
16A-/ 16C-/	.	.	.	.	.	.
!	!	!	!	!	!	!LO:DY:a
16Gn/ 16BB-X/	.	.	.	8a-\	i	f
16F/JJ 16AA-/	.	.	.	.	.	.
=63	=63	=63	=63	=63	=63	=63
16A-/LL 16C-X/	[2EE-\	[>2e-/)	.	4.ee-\	po-	.
16B-/ 16BB-/	.	.	.	.	.	.
16c-X/ 16AA-/	.	.	.	.	.	.
16B-/JJ 16BB-/	.	.	.	.	.	.
16A-/LL 16C-/	.	.	.	.	.	.
16B-/ 16BB-/	.	.	.	.	.	.
16c-/ 16AA-/	.	.	.	8dd-\	-niósł	.
16B-/JJ 16BB-/	.	.	.	.	.	.
!!LO:LB:g=original
=64	=64	=64	=64	=64	=64	=64
*	*	*^	*	*	*	*
*xywh-4:251,6407,5950,1610	*xywh-4:251,6407,5950,1610	*xywh-4:251,6407,5950,1610	*xywh-4:251,6407,5950,1610	*	*xywh-4:241,5811,5903,726	*	*
16C-X/LL	4.EE-\]	4e-/]	16A-\LL	.	8cc-X\	szum	.
16BB-/	.	.	16B-\	.	.	.	.
16AA-/JJ	.	.	16c-X\	.	8b-\	ra-	.
16r	.	.	16d-\JJ	.	.	.	.
4r	.	8fn/L	16c-\LL	.	8a-\	-do-	.
.	.	.	16B-\	.	.	.	.
.	8r	8gn/J	16c-\	.	8gn\	-snych	.
.	.	.	16d-\JJ	.	.	.	.
=65	=65	=65	=65	=65	=65	=65	=65
8qAAA-/	.	.	.	.	.	.	.
16AA-\LL	2r	(2a-/	16c-X\LL	>	[>2a-/	dum	.
16BB-\	.	.	16d-\	.	.	.	.
16C-X\	.	.	16e-\	.	.	.	.
16D-\JJ	.	.	16f-X\JJ	.	.	.	.
16C-/LL	.	.	16e-\LL	.	.	.	.
16BB-/	.	.	16d-\	.	.	.	.
16AA-/	.	.	16c-\	.	.	.	.
16BB-/JJ	.	.	16B-\JJ	.	.	.	.
*v	*v	*	*	*	*	*	*
=66	=66	=66	=66	=66	=66	=66
16C-X\LL	4.e-/)	16A-\LL	]	4a-/]	.	.
16D-\	.	16B-\	.	.	.	.
16E-\	.	16c-X\	.	.	.	.
16F-X\JJ	.	16d-\JJ	.	.	.	.
16E-\LL	.	16c-\LL	.	8r	.	.
16D-\	.	16B-\	.	.	.	.
!	!	!	!	!	!	!LO:DY:a
16C-\	8r	16A-\	.	8a-/	W da-	p
16BB-\JJ	.	16G-X\JJ	.	.	.	.
*	*v	*v	*	*	*	*
=67	=67	=67	=67	=67	=67
*^	*	*	*	*	*
16Fn/LL 16AA-/	[2DD-\	[>2c-X/	p	4.cc-X\	-le-	.
16G-X/ 16GG-X/	.	.	.	.	.	.
16A-/ 16FF/	.	.	.	.	.	.
16G-/JJ 16GG-/	.	.	.	.	.	.
16F/LL 16AA-/	.	.	.	.	.	.
16G-/ 16GG-/	.	.	.	.	.	.
16A-/ 16FF/	.	.	.	8a-/	-kie	.
16G-/JJ 16GG-/	.	.	.	.	.	.
!!LO:PB:g=original
=68	=68	=68	=68	=68	=68	=68
*xywh-5:278,1220,5894,1368	*xywh-5:278,1220,5894,1368	*xywh-5:278,1220,5894,1368	*	*xywh-5:222,121,6033,1284	*	*
16F/LL 16AA-/	4DD-\]	4.c-/]	.	4.f/	cu-	.
16Gn/ 16BB-/	.	.	.	.	.	<
16A-/ 16C-X/	.	.	.	.	.	.
16G/JJ 16BB-/	.	.	.	.	.	.
16F/LL	8AA-\	.	.	.	.	.
16G/	.	.	.	.	.	.
16A-/	8r	8r	.	8f/	-dze	.
16G/JJ	.	.	.	.	.	[
=69	=69	=69	=69	=69	=69	=69
16F/LL 16AA-/	[2CC\	(>2Bn/	.	2a-\	stro-	>
16F/ 16GG/	.	.	.	.	.	.
16A-/ 16FF/	.	.	.	.	.	.
16G/JJ 16GG/	.	.	.	.	.	.
16F/LL 16AA-/	.	.	.	.	.	.
16A-/ 16FF/	.	.	.	.	.	.
16G/ 16GG/	.	.	.	.	.	.
16F/JJ 16AA-/	.	.	.	.	.	]
=70	=70	=70	=70	=70	=70	=70
*	*^	*	*	*	*	*
16En/LL	2CC\_	4.GG/	[>2c/)	.	4.gn/	-ny	.
16F/	.	.	.	.	.	.	.
16G/	.	.	.	.	.	.	.
16A-/JJ	.	.	.	.	.	.	.
16B-/LL	.	.	.	.	.	.	.
16A-/	.	.	.	.	.	.	.
16G/	.	8AA-/	.	.	8r	.	.
16F/JJ	.	.	.	.	.	.	.
=71	=71	=71	=71	=71	=71	=71	=71
!	!	!	!LO:TX:a:t=poco rilen	!	!	!	!
16En/LL	2CC\_	4BB-\	2c/_>	.	2r	.	.
16F/	.	.	.	.	.	.	.
16G/	.	.	.	.	.	.	.
16A-/JJ	.	.	.	.	.	.	.
16B-/LL	.	4BBn\	.	.	.	.	.
16A-/	.	.	.	.	.	.	.
16G/	.	.	.	.	.	.	.
16F/JJ	.	.	.	.	.	.	.
*	*v	*v	*	*	*	*	*
*v	*v	*	*	*	*	*
!!LO:LB:g=original
=72	=72	=72	=72	=72	=72
*xywh-5:352,3036,5903,1275	*xywh-5:352,3036,5903,1275	*	*xywh-5:324,2375,5782,819	*	*
8C 8CC\]	8c/] 8En</	.	2r	.	.
8rDD	4c/ 4C</	.	.	.	.
4rDD	.	.	.	.	.
.	[8c/ [8C</	.	.	.	.
=73	=73	=73	=73	=73	=73
!	!	!	!LO:TX:a:rj:t=Tempo 1	!	!
2rFF	8c/] 8C</]	.	4r	.	.
.	4c/ 4C</	.	.	.	.
.	.	.	8r	.	.
!	!	!	!	!	!LO:DY:rj
.	8c/ 8C</	.	8c/	U-	p
=74	=74	=74	=74	=74	=74
4r	2c/ 2F</ 2C</	pp	(8c/	-de-	.
.	.	.	4f/)	.	.
[4FF/ [>4CC/ [4FFF/	.	.	.	.	.
.	.	.	8en/	-rzył	.
=75	=75	=75	=75	=75	=75
4FF/] 4CC/] 4FFF/]	2e-/ 2A-/ 2E-</	.	4f/	dzwon	.
[4FF/ [4CC/ [4FFF/	.	.	8r	.	.
.	.	.	8g/	U-	.
=76	=76	=76	=76	=76	=76
4FF/] 4CC/] 4FFF/]	2d-/ 2F/ 2D-</	.	(8a-/	-de-	.
.	.	.	4g/)	.	.
[4FF/ [>4CC/ [4FFF/	.	.	.	.	.
.	.	.	8f/	-rzył	.
!!LO:LB:g=original
=77	=77	=77	=77	=77	=77
*	*^	*	*	*	*
*xywh-5:287,4768,5856,1238	*xywh-5:287,4768,5856,1238	*xywh-5:287,4768,5856,1238	*	*xywh-5:231,4097,6043,800	*	*
4FF/] 4CC/] 4FFF/]	[2c/ [<2C</	[>4F</	.	[2cc\	dwzon	.
4AA-/ [4FF/ [4CC/ [4FFF/	.	16F</LL]	.	.	.	.
.	.	16G</	.	.	.	.
.	.	16A-</	.	.	.	.
.	.	16G</JJ	.	.	.	.
=78	=78	=78	=78	=78	=78	=78
4FF/] 4CC/] 4FFF/]	2c/] 2C</]	(16F</LL	.	4cc\]	.	.
.	.	16G</	.	.	.	.
.	.	16A-</	.	.	.	.
.	.	16G</JJ)	.	.	.	.
4FF/ 4CC/ 4FFF/	.	8F</L	.	8r	.	.
!	!	!	!	!	!	!LO:DY:rj
.	.	8F</J	.	8f/	Jak	f
*	*v	*v	*	*	*	*
=79	=79	=79	=79	=79	=79
4rGG	2f/ 2F</ 2D-</	f	4cc\	ser-	.
[4BB-/ [>4FF/ [4BBB-/	.	.	8f/	-ce,	.
.	.	.	8f/	jak	.
=80	=80	=80	=80	=80	=80
4BB-/] 4FF/] 4BBB-/]	2f/ 2d-/ 2F</	.	4.dd-\	ser-	.
[<4BB-/ [4FF/ [4BBB-/	.	.	.	.	.
.	.	.	8cc\	-ce	.
=81	=81	=81	=81	=81	=81
4BB-/] 4FF/] 4BBB-/]	2f/ 2d-/ 2F</	.	(<8b-\	me	.
.	.	.	4f/)	.	.
4BB-/ 4FF/ 4BBB-/	.	.	.	.	.
.	.	.	8a-\	na	.
!!LO:LB:g=original
=82	=82	=82	=82	=82	=82
*	*^	*	*	*	*
*xywh-5:92,6481,6210,1517	*xywh-5:92,6481,6210,1517	*xywh-5:92,6481,6210,1517	*	*xywh-5:334,5820,5838,772	*	*
4r	[2f/ [>2F</	[4B-\	f	4a-/	trwo-	.
[<4C/ [4GG/ [4CC/	.	16B-\LL]	.	8g/	-gę	.
.	.	16c\	.	.	.	.
.	.	16d-\	.	8r	.	.
.	.	16c\JJ	.	.	.	.
=83	=83	=83	=83	=83	=83	=83
4C/] 4GG/] 4CC/]	4f/] 4F</]	16B-\LL	.	2r	.	.
.	.	16c\	.	.	.	.
.	.	16d-\	.	.	.	.
.	.	16c\JJ	.	.	.	.
4C/ 4GG/ 4CC/	8en/L 8En</	4B-\	.	.	.	.
.	8e/J 8E</	.	.	.	.	.
*	*v	*v	*	*	*	*
=84	=84	=84	=84	=84	=84
2DDn/ 2DDDn/	2f/ 2B-/ 2F<;/	p	8r;	.	.
.	.	.	8f/	A	.
.	.	.	8b-\	sen-	.
.	.	.	8f/	-nych	.
=85	=85	=85	=85	=85	=85
!LO:SIC:v:s=na końcu taktu znak %	!	!	!	!	!
2CC/ 2CCC/	2f/ 2An/ 2F</	.	4.an/	chat,	.
.	.	.	8r	.	.
!!LO:PB:g=original
=86	=86	=86	=86	=86	=86
*xywh-6:197,1309,5738,1253	*xywh-6:197,1309,5738,1253	*	*xywh-6:178,204,5961,1244	*	*
2BB-/ 2BBB-/	2g/ 2dn/ 2G/	.	8r	.	.
.	.	.	8dn/	a	.
.	.	.	8g/	sen-	.
.	.	.	8d/	-nych	.
=87	=87	=87	=87	=87	=87
2D-\ 2DDn\	2f/ 2An/ 2F</	.	4f/	chat	.
.	.	.	8r	.	.
.	.	.	8an/	gdzie	.
=88	=88	=88	=88	=88	=88
2C\ 2CC\	2f/ 2An/ 2F</	.	4cc\	lud	.
.	.	.	8r	.	.
!	!	!	!	!	!LO:DY:rj
.	.	.	8ddn\	gdzie	f
=89	=89	=89	=89	=89	=89
2BBn\ 2BBBn\	2f/ 2dn/ 2An/ 2F</	sf	4ff\	brat,	.
.	.	.	8r	.	.
.	.	.	8een\	Roz-	.
!!LO:LB:g=original
=90	=90	=90	=90	=90	=90
*xywh-6:187,3008,5756,1272	*xywh-6:187,3008,5756,1272	*	*xywh-6:224,2386,5868,742	*	*
2C\ 2CC\	2An/ 2F</	.	8ddn/	-bu-	.
.	.	.	8cc/	-dzić	.
.	.	.	8an/	dziś	.
.	.	.	8f/	nie	.
=91	=91	=91	=91	=91	=91
4C\ 4CC\	4dn/ [4B-/ 4Dn</	.	(8dn/	mo-	.
.	.	.	4b-\	.	.
4C\ 4CC\	4c/ 4B-/] 4En</	.	.	.	.
.	.	.	16an/LL	.	.
.	.	p	16g/JJ	.	.
=92	=92	=92	=92	=92	=92
*^	*^	*	*	*	*
*2\left	*	*	*	*	*	*	*
[2FFF\	4ryy	[4c/ [4An/ [4F</	4ryy	.	[2f/)	-gę!	.
.	[4FF/	16c\LL 16AnX\] 16F<\]	8c/]	.	.	.	.
.	.	16B-\ 16G<\	.	.	.	.	.
.	.	16c\ 16A<\	8ryy	.	.	.	.
.	.	16B-\JJ 16G<\	.	.	.	.	.
*v	*v	*	*	*	*	*	*
*	*v	*v	*	*	*	*
=93	=93	=93	=93	=93	=93
4FF/] 4FFF/]	16An/LL 16F/	.	4.f/]	.	.
.	16B-/ 16G/	.	.	.	.
.	16c/ 16A/	.	.	.	.
.	16B-/JJ 16G/	.	.	.	.
4EEn/ 4EEEn/	8A/L 8F</	.	.	.	.
.	8A/J 8F</	.	8r	.	.
!!LO:LB:g=original
=94	=94	=94	=94	=94	=94
*^	*	*	*	*	*
*	*^	*	*	*	*	*
*xywh-6:215,4661,5784,1346	*xywh-6:215,4661,5784,1346	*xywh-6:215,4661,5784,1346	*xywh-6:215,4661,5784,1346	*	*xywh-6:280,4104,5756,631	*	*
*2\right	*	*	*	*	*	*	*
[2DDDn\	[>2C/	4ryy	(>[4A-X/	.	2r	.	.
.	.	[4DDn/	16A-/LL]	.	.	.	.
.	.	.	16G/	.	.	.	.
.	.	.	16F/	.	.	.	.
.	.	.	16G/JJ	.	.	.	.
*	*v	*v	*	*	*	*	*
*v	*v	*	*	*	*	*
=95	=95	=95	=95	=95	=95
4C/] 4DD/] 4DDD/]	16A-/LL	.	2r	.	.
.	16G/	.	.	.	.
.	16F/	.	.	.	.
.	16A-/JJ	.	.	.	.
4BBn/ 4DD-X/ 4DDD-X/	8G/L)	.	.	.	.
.	8F/J	.	.	.	.
=96	=96	=96	=96	=96	=96
*	*clefF4	*	*	*	*
*	*2\right	*	*	*	*
*	*^	*	*	*	*
!	!	!	!LO:DY:rj	!	!	!
4r	([4C/	2AA-\	pp	2r	.	.
[<4CC/ [4CCC/	16C/LL]	.	.	.	.	.
.	16D-/	.	.	.	.	.
.	16E-/	.	.	.	.	.
.	16D-/JJ)	.	.	.	.	.
!!LO:LB:g=original
=97	=97	=97	=97	=97	=97	=97
*xywh-6:299,6369,5877,1643	*xywh-6:299,6369,5877,1643	*xywh-6:299,6369,5877,1643	*	*xywh-6:215,5831,5979,612	*	*
4CC/] 4CCC/]	[2C/	16AA-\LL	<	2r	.	.
.	.	16GG\JJ	.	.	.	.
.	.	4BB-\	.	.	.	.
4CC/ 4CCC/	.	.	.	.	.	.
.	.	16AA-\LL	.	.	.	.
.	.	16GG\JJ	.	.	.	.
=98	=98	=98	=98	=98	=98	=98
4r	4C/_	2AA-\	[ pp <	2r	.	.
[<4FF/ [4CC/ [4FFF/	16C/LL]	.	.	.	.	.
.	16D-/	.	.	.	.	.
.	16E-/	.	.	.	.	.
.	16D-/JJ	.	.	.	.	.
=99	=99	=99	=99	=99	=99	=99
*	*	*^	*	*	*	*
4FF/] 4CC/] 4FFF/]	[2F/	[4C\	2AA-\	[ >	2r	.	.
[<4FF/ [4CC/ [4FFF/	.	16C\LL]	.	.	.	.	.
.	.	16D-\	.	.	.	.	.
.	.	16E-\	.	.	.	.	.
.	.	16D-\JJ	.	.	.	.	.
*	*v	*v	*v	*	*	*	*
=100	=100	=100	=100	=100	=100
4FF/] 4CC/] 4FFF/]	2A-\ 2F\] 2C;\	]]	2r;	.	.
4FF/ 4CC/ 4FFF;/	.	.	.	.	.
==	==	==	==	==	==
*-	*-	*-	*-	*-	*-
!!!system-decoration: [(s1)][(s2,s3)]
!!!RDF**kern: > = above
!!!RDF**kern: < = below
!!!ENC: Berenika Jozajtis
!!!END: 2022-02-18
!!!ENC: Leszek Kubiak
!!!END: 2022-02-19
!!!ENC-iiif: Jan Barakat
!!!END-iiif: 2022-08-19
!!!YEC: Copyright 2022 Narodowy Instytut Fryderyka Chopina (https://polishscores.org)
!!!YEM: License CC-BY-4.0 (https://creativecommons.org/licenses/by/4.0)
